assets/awscloudwatchalarm/original.svg

<svg height="48" viewBox="0 0 48 48" width="48" xmlns="http://www.w3.org/2000/svg"><path d="m41.425 40.668h-6.788v-20.838c2.185.695 4.602.695 6.788 0zm.57-23.208a9.27 9.27 0 0 1 -7.928 0 1 1 0 0 0 -1.43.902v23.306a1 1 0 0 0 1 1h8.788a1 1 0 0 0 1-1v-23.307a1 1 0 0 0 -1.43-.902m-3.965-13.459a5.157 5.157 0 0 1 5.152 5.152 5.16 5.16 0 0 1 -5.152 5.152 5.157 5.157 0 0 1 -5.151-5.152 5.157 5.157 0 0 1 5.151-5.152m0 12.304a7.16 7.16 0 0 0 7.152-7.152c.001-3.943-3.207-7.152-7.152-7.152s-7.15 3.209-7.15 7.15c0 3.944 3.208 7.153 7.15 7.153m-36.03 29.88h43.94v-2h-43.94zm18.575-5.517h6.788v-12.938h-6.788zm-1 2h8.788a1 1 0 0 0 1-1v-14.938a1 1 0 0 0 -1-1h-8.788a1 1 0 0 0 -1 1v14.94a1 1 0 0 0 1 1m-13.06-2h6.788v-17.333h-6.787zm-1 2h8.788a1 1 0 0 0 1-1v-19.333a1 1 0 0 0 -1-1h-8.787a1 1 0 0 0 -1 1v19.333a1 1 0 0 0 1 1" fill="#e7157b" fill-rule="evenodd"/></svg>

<svg xmlns="http://www.w3.org/2000/svg" width="48" height="48" viewBox="0 0 48 48"><title>Icon-Resource/Management-Governance/Res_Amazon-CloudWatch_Alarm_48</title><g id="Icon-Resource/Management-Governance/Res_Amazon-CloudWatch_Alarm_48" fill="none" fill-rule="evenodd" stroke="none" stroke-width="1"><path id="Amazon-Cloudwatch_alarm_Resource-Icon_light-bg" fill="#e7157b" d="M41.425 40.668h-6.788V19.83c2.185.695 4.602.695 6.788 0zm.57-23.208a9.27 9.27 0 0 1-7.928 0 1 1 0 0 0-1.43.902v23.306a1 1 0 0 0 1 1h8.788a1 1 0 0 0 1-1V18.361a1 1 0 0 0-1.43-.902M38.03 4a5.157 5.157 0 0 1 5.152 5.152 5.16 5.16 0 0 1-5.152 5.152 5.157 5.157 0 0 1-5.151-5.152A5.157 5.157 0 0 1 38.03 4m0 12.304a7.16 7.16 0 0 0 7.152-7.152C45.183 5.209 41.975 2 38.03 2S30.88 5.209 30.88 9.15c0 3.944 3.208 7.153 7.15 7.153M2 46.183h43.94v-2H2zm18.575-5.517h6.788V27.728h-6.788zm-1 2h8.788a1 1 0 0 0 1-1V26.728a1 1 0 0 0-1-1h-8.788a1 1 0 0 0-1 1v14.94a1 1 0 0 0 1 1m-13.06-2h6.788V23.335H6.516zm-1 2h8.788a1 1 0 0 0 1-1V22.335a1 1 0 0 0-1-1H5.516a1 1 0 0 0-1 1v19.333a1 1 0 0 0 1 1"/></g></svg>
